src/assets/images/logo-umbrella.svg

<svg height="98" viewBox="0 0 593 98" width="593" xmlns="http://www.w3.org/2000/svg" xmlns:xlink="http://www.w3.org/1999/xlink"><mask id="a" fill="#fff"><path d="m0 .667h521.959v97.333h-521.959z" fill="none"/></mask><g fill="#1a1919" fill-rule="evenodd"><path d="m283.677 38.616c-1.467-2.075-3.555-3.798-6.204-5.123-2.647-1.323-6.063-1.993-10.152-1.993-3.996 0-7.551.957-10.566 2.844-2.686 1.682-4.743 3.746-6.126 6.146-1.23-2.393-3.068-4.452-5.474-6.132-2.718-1.897-6.664-2.858-11.727-2.858-3.657 0-6.906.901-9.658 2.679-2.122 1.371-3.803 2.994-5.018 4.838v-6.091h-13.727v55.437h13.727v-28.245c0-3.217.31-5.913.922-8.011.607-2.085 1.422-3.789 2.423-5.066.984-1.255 2.149-2.144 3.464-2.643 1.344-.51 2.82-.769 4.386-.769 3.42 0 5.781 1.138 7.219 3.479 1.465 2.389 2.208 5.764 2.208 10.034v31.221h13.727v-28.245c0-3.222.292-5.92.867-8.019.569-2.082 1.364-3.783 2.364-5.058.985-1.256 2.132-2.146 3.411-2.645 1.305-.509 2.761-.767 4.325-.767 3.423 0 5.823 1.159 7.337 3.543 1.538 2.425 2.318 5.818 2.318 10.084v31.107h13.727v-34.965c0-2.608-.262-5.223-.78-7.775-.525-2.586-1.532-4.943-2.993-7.007"/><path d="m403.461 32.184c-1.827 0-3.669.269-5.476.799-1.805.53-3.495 1.264-5.024 2.182-1.528.917-2.894 1.969-4.061 3.127-.678.674-1.269 1.377-1.769 2.102v-7.468h-13.728v55.437h13.728v-23.948c0-6.668 1.414-11.588 4.204-14.627 2.778-3.027 6.858-4.562 12.126-4.562.964 0 1.779.038 2.425.112.644.073 1.481.223 2.488.446l.61.135v-12.699l-.303-.13c-1.389-.601-3.146-.906-5.22-.906"/><path d="m430.364 46.172c2.521-2.028 5.621-3.057 9.215-3.057 3.732 0 6.814 1.089 9.161 3.236 2.226 2.036 3.405 4.793 3.51 8.2h-25.628c.104-3.647 1.362-6.465 3.742-8.379zm27.849-7.458c-2.339-2.24-5.109-4.022-8.232-5.295-3.127-1.273-6.512-1.919-10.059-1.919-4.348 0-8.274.743-11.669 2.209-3.402 1.47-6.292 3.538-8.593 6.148-2.296 2.605-4.076 5.734-5.291 9.3-1.21 3.554-1.823 7.419-1.823 11.487 0 3.766.574 7.427 1.708 10.883 1.136 3.47 2.877 6.598 5.172 9.299 2.298 2.705 5.206 4.898 8.641 6.519 3.437 1.621 7.54 2.443 12.196 2.443 3.538 0 6.781-.507 9.638-1.511 2.856-1.003 5.362-2.355 7.45-4.018 2.09-1.663 3.819-3.618 5.138-5.81 1.317-2.191 2.222-4.501 2.687-6.868l.119-.597h-13.789l-.126.316c-.367.924-.841 1.833-1.409 2.7-.552.844-1.257 1.574-2.095 2.166-.844.598-1.898 1.086-3.133 1.452-1.241.369-2.748.555-4.48.555-2.473 0-4.607-.363-6.341-1.08-1.727-.711-3.143-1.687-4.208-2.902-1.073-1.222-1.883-2.685-2.41-4.347-.486-1.53-.753-3.168-.797-4.875h38.487l.071-.418c.307-1.804.482-3.373.52-4.662.039-1.31.057-2.407.057-3.352 0-3.551-.656-6.882-1.952-9.898s-3.139-5.682-5.477-7.925z"/><path d="m478.447 88.363h13.728v-79.286h-13.728z"/><path d="m563.052 77.431c-2.311 0-4.437-.454-6.317-1.349-1.891-.899-3.538-2.117-4.893-3.621-1.356-1.502-2.407-3.297-3.123-5.336-.719-2.048-1.084-4.228-1.084-6.481 0-2.289.365-4.48 1.084-6.508.715-2.019 1.767-3.806 3.124-5.309 1.354-1.502 3.001-2.72 4.892-3.62 1.882-.896 4.007-1.35 6.317-1.35 2.311 0 4.458.455 6.378 1.351 1.925.899 3.58 2.116 4.916 3.617 1.34 1.506 2.403 3.305 3.156 5.346.756 2.047 1.139 4.225 1.139 6.473 0 2.249-.383 4.427-1.138 6.474-.755 2.042-1.817 3.841-3.157 5.346-1.336 1.502-2.991 2.718-4.916 3.616-1.919.897-4.065 1.351-6.378 1.351zm15.589-44.505v6.259c-1.675-2.184-3.882-3.961-6.58-5.294-3.213-1.587-6.493-2.391-9.751-2.391-4.158 0-8.027.782-11.501 2.325-3.469 1.543-6.49 3.684-8.979 6.365-2.486 2.679-4.448 5.823-5.833 9.344-1.387 3.524-2.089 7.261-2.089 11.11 0 3.926.703 7.674 2.09 11.141 1.387 3.466 3.347 6.589 5.831 9.284 2.489 2.701 5.501 4.853 8.951 6.394 3.453 1.543 7.333 2.325 11.53 2.325 3.257 0 6.538-.803 9.751-2.39 2.698-1.332 4.905-3.11 6.58-5.295v6.26h13.727v-55.437z"/><path d="m175.127 60.53c0 2.248-.384 4.426-1.141 6.473-.756 2.041-1.828 3.84-3.188 5.344-1.359 1.503-3.026 2.721-4.956 3.619-1.922.897-4.072 1.351-6.39 1.351-2.316 0-4.445-.454-6.329-1.349-1.893-.898-3.532-2.116-4.872-3.618-1.341-1.504-2.384-3.3-3.102-5.339-.72-2.046-1.085-4.226-1.085-6.481v-44.85h-14.412v44.85c0 4.002.721 7.855 2.143 11.454 1.423 3.6 3.463 6.803 6.061 9.519 2.599 2.718 5.751 4.897 9.368 6.475 3.619 1.581 7.734 2.382 12.228 2.382 4.577 0 8.765-.801 12.449-2.38 3.681-1.579 6.868-3.758 9.474-6.477 2.603-2.716 4.637-5.921 6.044-9.521 1.406-3.6 2.119-7.452 2.119-11.452v-44.85h-14.411z"/><path d="m332.024 43.857c2.348 0 4.482.454 6.345 1.349 1.872.899 3.509 2.118 4.866 3.621 1.357 1.505 2.407 3.3 3.123 5.336.719 2.048 1.084 4.228 1.084 6.481 0 2.254-.365 4.433-1.084 6.481-.716 2.037-1.766 3.833-3.123 5.336-1.356 1.504-3.003 2.722-4.893 3.621-1.881.895-4.006 1.349-6.318 1.349-2.426 0-4.619-.454-6.518-1.35-1.909-.898-3.553-2.115-4.889-3.617-1.338-1.502-2.38-3.298-3.097-5.339-.719-2.048-1.085-4.228-1.085-6.481 0-2.289.366-4.479 1.084-6.508.717-2.021 1.759-3.808 3.098-5.311 1.336-1.501 2.98-2.718 4.889-3.618 1.901-.895 4.094-1.35 6.518-1.35zm21.223-3.667c-2.488-2.68-5.499-4.822-8.95-6.364-3.455-1.544-7.334-2.326-11.531-2.326-3.257 0-6.538.804-9.751 2.391-2.697 1.332-4.904 3.109-6.58 5.294v-30.189h-13.726v79.367h13.726v-6.26c1.677 2.186 3.884 3.963 6.58 5.295 3.213 1.587 6.494 2.39 9.751 2.39 4.16 0 8.029-.782 11.501-2.325 3.47-1.541 6.492-3.693 8.981-6.394 2.482-2.694 4.444-5.817 5.831-9.284 1.388-3.466 2.09-7.214 2.09-11.141 0-3.887-.702-7.635-2.089-11.14-1.386-3.502-3.349-6.636-5.833-9.314z"/><path d="m508.231 88.363h13.728v-79.286h-13.728z" mask="url(#a)"/><path d="m48.553 10.017c1.082 0 2.144.213 3.158.633l22.099 9.154c2.037.844 3.623 2.43 4.467 4.467l9.154 22.099c.843 2.037.843 4.281 0 6.318l-9.154 22.099c-.844 2.036-2.43 3.623-4.467 4.466l-22.099 9.154c-2.007.832-4.309.832-6.317 0l-22.099-9.154c-2.037-.843-3.623-2.43-4.467-4.466l-9.153-22.1c-.837-2.02-.832-4.335.014-6.352l9.357-22.3c.853-2.033 2.447-3.612 4.487-4.447l21.896-8.952c1.004-.41 2.055-.619 3.124-.619zm47.702 34.129-10.275-24.808c-1.387-3.349-3.996-5.957-7.345-7.344l-24.836-10.288c-3.328-1.378-6.996-1.386-10.329-.023l-24.51 10.021c-3.354 1.372-5.974 3.968-7.378 7.311l-10.532 25.102c-1.392 3.316-1.4 7.123-.024 10.445l10.263 24.778c1.388 3.349 3.996 5.957 7.345 7.344l24.807 10.275c1.666.691 3.413 1.041 5.194 1.041 1.78 0 3.527-.35 5.193-1.041l24.807-10.275c3.349-1.387 5.958-3.995 7.345-7.344l10.275-24.807c1.387-3.349 1.387-7.038 0-10.387z" mask="url(#a)"/><path d="m56.816 52.246c-.105.301-.227.596-.365.885-.217.455-.473.895-.769 1.313-.961 1.354-2.272 2.39-3.761 3.024-.001.001-.003.001-.004.002-1.08.459-2.253.708-3.456.708-1.16 0-2.268-.226-3.285-.635-.01-.004-.02-.007-.03-.011-.158-.065-.314-.132-.468-.205-2.124-1.01-3.783-2.841-4.567-5.081-.319-.914-.495-1.892-.495-2.913 0-3.519 2.067-6.564 5.05-7.987 0 0 0 0 .001-.001.154-.073.312-.141.471-.206.012-.005.024-.01.036-.015 1.017-.408 2.126-.636 3.287-.636 1.052 0 2.062.186 2.998.524.001.001.001.001.001.001.317.114.624.247.923.395l.001.001c1.919.953 3.444 2.583 4.262 4.576.002.004.003.007.005.011.421 1.03.655 2.157.655 3.337 0 1.004-.167 1.986-.49 2.913"/></g></svg>

<?xml version="1.0" encoding="UTF-8"?>
<svg width="593px" height="98px" viewBox="0 0 593 98" version="1.1" xmlns="http://www.w3.org/2000/svg" xmlns:xlink="http://www.w3.org/1999/xlink">
    <!-- Generator: Sketch 51.3 (57544) - http://www.bohemiancoding.com/sketch -->
    <title>umbrella-logo en logotype-black-2</title>
    <desc>Created with Sketch.</desc>
    <defs>
        <polygon id="path-1" points="0 0.667 521.959 0.667 521.959 98 0 98"></polygon>
    </defs>
    <g id="umbrella-logo-en-logotype-black-2" stroke="none" stroke-width="1" fill="none" fill-rule="evenodd">
        <path d="M283.677,38.616 C282.21,36.541 280.122,34.818 277.473,33.493 C274.826,32.17 271.41,31.5 267.321,31.5 C263.325,31.5 259.77,32.457 256.755,34.344 C254.069,36.026 252.012,38.09 250.629,40.49 C249.399,38.097 247.561,36.038 245.155,34.358 C242.437,32.461 238.491,31.5 233.428,31.5 C229.771,31.5 226.522,32.401 223.77,34.179 C221.648,35.55 219.967,37.173 218.752,39.017 L218.752,32.926 L205.025,32.926 L205.025,88.363 L218.752,88.363 L218.752,60.118 C218.752,56.901 219.062,54.205 219.674,52.107 C220.281,50.022 221.096,48.318 222.097,47.041 C223.081,45.786 224.246,44.897 225.561,44.398 C226.905,43.888 228.381,43.629 229.947,43.629 C233.367,43.629 235.728,44.767 237.166,47.108 C238.631,49.497 239.374,52.872 239.374,57.142 L239.374,88.363 L253.101,88.363 L253.101,60.118 C253.101,56.896 253.393,54.198 253.968,52.099 C254.537,50.017 255.332,48.316 256.332,47.041 C257.317,45.785 258.464,44.895 259.743,44.396 C261.048,43.887 262.504,43.629 264.068,43.629 C267.491,43.629 269.891,44.788 271.405,47.172 C272.943,49.597 273.723,52.99 273.723,57.256 L273.723,88.363 L287.45,88.363 L287.45,53.398 C287.45,50.79 287.188,48.175 286.67,45.623 C286.145,43.037 285.138,40.68 283.677,38.616" id="Fill-1" fill="#1A1919"></path>
        <path d="M403.461,32.184 C401.634,32.184 399.792,32.453 397.985,32.983 C396.18,33.513 394.49,34.247 392.961,35.165 C391.433,36.082 390.067,37.134 388.9,38.292 C388.222,38.966 387.631,39.669 387.131,40.394 L387.131,32.926 L373.403,32.926 L373.403,88.363 L387.131,88.363 L387.131,64.415 C387.131,57.747 388.545,52.827 391.335,49.788 C394.113,46.761 398.193,45.226 403.461,45.226 C404.425,45.226 405.24,45.264 405.886,45.338 C406.53,45.411 407.367,45.561 408.374,45.784 L408.984,45.919 L408.984,33.22 L408.681,33.09 C407.292,32.489 405.535,32.184 403.461,32.184" id="Fill-2" fill="#1A1919"></path>
        <path d="M430.364,46.172 C432.885,44.144 435.985,43.115 439.579,43.115 C443.311,43.115 446.393,44.204 448.74,46.351 C450.966,48.387 452.145,51.144 452.25,54.551 L426.622,54.551 C426.726,50.904 427.984,48.086 430.364,46.172 Z M458.213,38.714 C455.874,36.474 453.104,34.692 449.981,33.419 C446.854,32.146 443.469,31.5 439.922,31.5 C435.574,31.5 431.648,32.243 428.253,33.709 C424.851,35.179 421.961,37.247 419.66,39.857 C417.364,42.462 415.584,45.591 414.369,49.157 C413.159,52.711 412.546,56.576 412.546,60.644 C412.546,64.41 413.12,68.071 414.254,71.527 C415.39,74.997 417.131,78.125 419.426,80.826 C421.724,83.531 424.632,85.724 428.067,87.345 C431.504,88.966 435.607,89.788 440.263,89.788 C443.801,89.788 447.044,89.281 449.901,88.277 C452.757,87.274 455.263,85.922 457.351,84.259 C459.441,82.596 461.17,80.641 462.489,78.449 C463.806,76.258 464.711,73.948 465.176,71.581 L465.295,70.984 L451.506,70.984 L451.38,71.3 C451.013,72.224 450.539,73.133 449.971,74 C449.419,74.844 448.714,75.574 447.876,76.166 C447.032,76.764 445.978,77.252 444.743,77.618 C443.502,77.987 441.995,78.173 440.263,78.173 C437.79,78.173 435.656,77.81 433.922,77.093 C432.195,76.382 430.779,75.406 429.714,74.191 C428.641,72.969 427.831,71.506 427.304,69.844 C426.818,68.314 426.551,66.676 426.507,64.969 L464.994,64.969 L465.065,64.551 C465.372,62.747 465.547,61.178 465.585,59.889 C465.624,58.579 465.642,57.482 465.642,56.537 C465.642,52.986 464.986,49.655 463.69,46.639 C462.394,43.623 460.551,40.957 458.213,38.714 Z" id="Fill-3" fill="#1A1919"></path>
        <polygon id="Fill-4" fill="#1A1919" points="478.447 88.363 492.175 88.363 492.175 9.077 478.447 9.077"></polygon>
        <path d="M563.052,77.431 C560.741,77.431 558.615,76.977 556.735,76.082 C554.844,75.183 553.197,73.965 551.842,72.461 C550.486,70.959 549.435,69.164 548.719,67.125 C548,65.077 547.635,62.897 547.635,60.644 C547.635,58.355 548,56.164 548.719,54.136 C549.434,52.117 550.486,50.33 551.843,48.827 C553.197,47.325 554.844,46.107 556.735,45.207 C558.617,44.311 560.742,43.857 563.052,43.857 C565.363,43.857 567.51,44.312 569.43,45.208 C571.355,46.107 573.01,47.324 574.346,48.825 C575.686,50.331 576.749,52.13 577.502,54.171 C578.258,56.218 578.641,58.396 578.641,60.644 C578.641,62.893 578.258,65.071 577.503,67.118 C576.748,69.16 575.686,70.959 574.346,72.464 C573.01,73.966 571.355,75.182 569.43,76.08 C567.511,76.977 565.365,77.431 563.052,77.431 Z M578.641,32.926 L578.641,39.185 C576.966,37.001 574.759,35.224 572.061,33.891 C568.848,32.304 565.568,31.5 562.31,31.5 C558.152,31.5 554.283,32.282 550.809,33.825 C547.34,35.368 544.319,37.509 541.83,40.19 C539.344,42.869 537.382,46.013 535.997,49.534 C534.61,53.058 533.908,56.795 533.908,60.644 C533.908,64.57 534.611,68.318 535.998,71.785 C537.385,75.251 539.345,78.374 541.829,81.069 C544.318,83.77 547.33,85.922 550.78,87.463 C554.233,89.006 558.113,89.788 562.31,89.788 C565.567,89.788 568.848,88.985 572.061,87.398 C574.759,86.066 576.966,84.288 578.641,82.103 L578.641,88.363 L592.368,88.363 L592.368,32.926 L578.641,32.926 Z" id="Fill-5" fill="#1A1919"></path>
        <path d="M175.127,60.53 C175.127,62.778 174.743,64.956 173.986,67.003 C173.23,69.044 172.158,70.843 170.798,72.347 C169.439,73.85 167.772,75.068 165.842,75.966 C163.92,76.863 161.77,77.317 159.452,77.317 C157.136,77.317 155.007,76.863 153.123,75.968 C151.23,75.07 149.591,73.852 148.251,72.35 C146.91,70.846 145.867,69.05 145.149,67.011 C144.429,64.965 144.064,62.785 144.064,60.53 L144.064,15.68 L129.652,15.68 L129.652,60.53 C129.652,64.532 130.373,68.385 131.795,71.984 C133.218,75.584 135.258,78.787 137.856,81.503 C140.455,84.221 143.607,86.4 147.224,87.978 C150.843,89.559 154.958,90.36 159.452,90.36 C164.029,90.36 168.217,89.559 171.901,87.98 C175.582,86.401 178.769,84.222 181.375,81.503 C183.978,78.787 186.012,75.582 187.419,71.982 C188.825,68.382 189.538,64.53 189.538,60.53 L189.538,15.68 L175.127,15.68 L175.127,60.53" id="Fill-6" fill="#1A1919"></path>
        <path d="M332.024,43.857 C334.372,43.857 336.506,44.311 338.369,45.206 C340.241,46.105 341.878,47.324 343.235,48.827 C344.592,50.332 345.642,52.127 346.358,54.163 C347.077,56.211 347.442,58.391 347.442,60.644 C347.442,62.898 347.077,65.077 346.358,67.125 C345.642,69.162 344.592,70.958 343.235,72.461 C341.879,73.965 340.232,75.183 338.342,76.082 C336.461,76.977 334.336,77.431 332.024,77.431 C329.598,77.431 327.405,76.977 325.506,76.081 C323.597,75.183 321.953,73.966 320.617,72.464 C319.279,70.962 318.237,69.166 317.52,67.125 C316.801,65.077 316.435,62.897 316.435,60.644 C316.435,58.355 316.801,56.165 317.519,54.136 C318.236,52.115 319.278,50.328 320.617,48.825 C321.953,47.324 323.597,46.107 325.506,45.207 C327.407,44.312 329.6,43.857 332.024,43.857 Z M353.247,40.19 C350.759,37.51 347.748,35.368 344.297,33.826 C340.842,32.282 336.963,31.5 332.766,31.5 C329.509,31.5 326.228,32.304 323.015,33.891 C320.318,35.223 318.111,37 316.435,39.185 L316.435,8.996 L302.709,8.996 L302.709,88.363 L316.435,88.363 L316.435,82.103 C318.112,84.289 320.319,86.066 323.015,87.398 C326.228,88.985 329.509,89.788 332.766,89.788 C336.926,89.788 340.795,89.006 344.267,87.463 C347.737,85.922 350.759,83.77 353.248,81.069 C355.73,78.375 357.692,75.252 359.079,71.785 C360.467,68.319 361.169,64.571 361.169,60.644 C361.169,56.757 360.467,53.009 359.08,49.504 C357.694,46.002 355.731,42.868 353.247,40.19 Z" id="Fill-7" fill="#1A1919"></path>
        <g id="Group-11">
            <mask id="mask-2" fill="white">
                <use xlink:href="#path-1"></use>
            </mask>
            <g id="Clip-9"></g>
            <polygon id="Fill-8" fill="#1A1919" mask="url(#mask-2)" points="508.231 88.363 521.959 88.363 521.959 9.077 508.231 9.077"></polygon>
            <path d="M48.553,10.017 C49.635,10.017 50.697,10.23 51.711,10.65 L73.81,19.804 C75.847,20.648 77.433,22.234 78.277,24.271 L87.431,46.37 C88.274,48.407 88.274,50.651 87.431,52.688 L78.277,74.787 C77.433,76.823 75.847,78.41 73.81,79.253 L51.711,88.407 C49.704,89.239 47.402,89.239 45.394,88.407 L23.295,79.253 C21.258,78.41 19.672,76.823 18.828,74.787 L9.675,52.687 C8.838,50.667 8.843,48.352 9.689,46.335 L19.046,24.035 C19.899,22.002 21.493,20.423 23.533,19.588 L45.429,10.636 C46.433,10.226 47.484,10.017 48.553,10.017 Z M96.255,44.146 L85.98,19.338 C84.593,15.989 81.984,13.381 78.635,11.994 L53.799,1.706 C50.471,0.328 46.803,0.32 43.47,1.683 L18.96,11.704 C15.606,13.076 12.986,15.672 11.582,19.015 L1.05,44.117 C-0.342,47.433 -0.35,51.24 1.026,54.562 L11.289,79.34 C12.677,82.689 15.285,85.297 18.634,86.684 L43.441,96.959 C45.107,97.65 46.854,98 48.635,98 C50.415,98 52.162,97.65 53.828,96.959 L78.635,86.684 C81.984,85.297 84.593,82.689 85.98,79.34 L96.255,54.533 C97.642,51.184 97.642,47.495 96.255,44.146 Z" id="Fill-10" fill="#1A1919" mask="url(#mask-2)"></path>
        </g>
        <path d="M56.816,52.246 C56.711,52.547 56.589,52.842 56.451,53.131 C56.234,53.586 55.978,54.026 55.682,54.444 C54.721,55.798 53.41,56.834 51.921,57.468 C51.92,57.469 51.918,57.469 51.917,57.47 C50.837,57.929 49.664,58.178 48.461,58.178 C47.301,58.178 46.193,57.952 45.176,57.543 C45.166,57.539 45.156,57.536 45.146,57.532 C44.988,57.467 44.832,57.4 44.678,57.327 C42.554,56.317 40.895,54.486 40.111,52.246 C39.792,51.332 39.616,50.354 39.616,49.333 C39.616,45.814 41.683,42.769 44.666,41.346 C44.666,41.346 44.666,41.346 44.667,41.345 C44.821,41.272 44.979,41.204 45.138,41.139 C45.15,41.134 45.162,41.129 45.174,41.124 C46.191,40.716 47.3,40.488 48.461,40.488 C49.513,40.488 50.523,40.674 51.459,41.012 C51.46,41.013 51.46,41.013 51.46,41.013 C51.777,41.127 52.084,41.26 52.383,41.408 L52.384,41.409 C54.303,42.362 55.828,43.992 56.646,45.985 C56.648,45.989 56.649,45.992 56.651,45.996 C57.072,47.026 57.306,48.153 57.306,49.333 C57.306,50.337 57.139,51.319 56.816,52.246" id="Fill-12" fill="#1A1919"></path>
    </g>
</svg>
